svg/fluentui-system-icons/ic_fluent_data_pie_20_filled.svg

<svg width="20" height="20" viewBox="0 0 20 20" fill="none" xmlns="http://www.w3.org/2000/svg">
<path d="M8.00297 4.07044C8.54972 3.99247 9 4.44769 9 4.99997V11H15C15.5523 11 16.0075 11.4502 15.9295 11.997C15.4456 15.3907 12.5275 18 9 18C5.13401 18 2 14.866 2 11C2 7.47247 4.60923 4.55439 8.00297 4.07044ZM17.062 10C17.5596 10 17.9892 9.6337 17.9987 9.13621C17.9996 9.09091 18 9.04551 18 9C18 5.13401 14.866 2 11 2C10.9545 2 10.9091 2.00043 10.8638 2.0013C10.3663 2.01079 10 2.44045 10 2.93803V9C10 9.55228 10.4477 10 11 10H17.062Z" fill="#212121"/>
</svg>

<svg xmlns="http://www.w3.org/2000/svg" width="20" height="20"><path d="M8.003 4.07C8.55 3.992 9 4.448 9 5v6h6c.552 0 1.008.45.93.997A7.002 7.002 0 0 1 2 11a7.002 7.002 0 0 1 6.003-6.93ZM17.062 10c.498 0 .927-.366.937-.864L18 9a7 7 0 0 0-7.136-6.999c-.498.01-.864.44-.864.937V9a1 1 0 0 0 1 1h6.062Z"/></svg>
